img/icons/cart-blue.svg

<svg xmlns="http://www.w3.org/2000/svg" width="512" height="512" viewBox="0 0 512 512"><path fill="#227178" d="M346.914 143.61H50.168l53.563 121.165h205.086l38.098-121.166zm114.918-38.5l-12.746 40h-29.98l-59.178 188.165H132.856l-17.625-40h215.45l59.18-188.166h71.972zM316.816 380c0 14.852-12.04 26.89-26.89 26.89s-26.89-12.038-26.89-26.89 12.038-26.89 26.89-26.89 26.89 12.038 26.89 26.89zm-88.883 0c0 14.852-12.04 26.89-26.893 26.89-14.852 0-26.89-12.038-26.89-26.89s12.038-26.89 26.89-26.89c14.853 0 26.893 12.038 26.893 26.89z"/></svg>

<?xml version="1.0" encoding="utf-8"?>

<!-- The icon can be used freely in both personal and commercial projects with no attribution required, but always appreciated. 
You may NOT sub-license, resell, rent, redistribute or otherwise transfer the icon without express written permission from iconmonstr.com -->

<!DOCTYPE svg PUBLIC "-//W3C//DTD SVG 1.1//EN" "http://www.w3.org/Graphics/SVG/1.1/DTD/svg11.dtd">
<svg version="1.1" xmlns="http://www.w3.org/2000/svg" xmlns:xlink="http://www.w3.org/1999/xlink" x="0px" y="0px"
	 width="512px" height="512px" viewBox="0 0 512 512" enable-background="new 0 0 512 512" xml:space="preserve">
<path id="shopping-cart-3-icon" fill="#227178" d="M346.914,143.609H50.168l53.563,121.166h205.085L346.914,143.609z M461.832,105.109l-12.746,40
	h-29.98l-59.178,188.166H132.856l-17.625-40H330.68l59.18-188.166H461.832z M316.816,380c0,14.852-12.039,26.891-26.891,26.891
	S263.035,394.852,263.035,380s12.039-26.891,26.891-26.891S316.816,365.148,316.816,380z M227.933,380
	c0,14.852-12.04,26.891-26.893,26.891c-14.852,0-26.891-12.039-26.891-26.891s12.039-26.891,26.891-26.891
	C215.893,353.109,227.933,365.148,227.933,380z"/>
</svg>
